teeny/outline/bag-plus.svg

<svg width="15" height="15" viewBox="0 0 15 15" fill="none" xmlns="http://www.w3.org/2000/svg">
<path d="M4.49998 4V3.5C4.49998 1.84315 5.84313 0.5 7.49998 0.5C9.15683 0.5 10.5 1.84315 10.5 3.5V4M7.49998 7V12M4.99998 9.5H9.99998M2.40114 6.38957L1.62336 13.3896C1.55754 13.9819 2.02123 14.5 2.61724 14.5H12.3827C12.9787 14.5 13.4424 13.9819 13.3766 13.3896L12.5988 6.38957C12.5426 5.88313 12.1145 5.5 11.6049 5.5H3.39502C2.88547 5.5 2.45741 5.88314 2.40114 6.38957Z" stroke="black"/>
</svg>

<svg viewBox="0 0 15 15" xmlns="http://www.w3.org/2000/svg"><path fill="none" stroke="#000" d="M4.49 4v-.5c0-1.66 1.34-3 3-3 1.65 0 3 1.34 3 3V4M7.48 7v5m-2.5-2.5h5m-7.6-3.12l-.78 7c-.07.59.39 1.11.99 1.11h9.76c.59 0 1.05-.52.99-1.12l-.78-7.01c-.06-.51-.49-.89-1-.89H3.35c-.51 0-.94.38-1 .88Z"/></svg>
